symbols-de/shields/motorway_3x3_z16.svg

<?xml version="1.0" encoding="UTF-8" standalone="no"?>
<svg
   xmlns:dc="http://purl.org/dc/elements/1.1/"
   xmlns:cc="http://creativecommons.org/ns#"
   xmlns:rdf="http://www.w3.org/1999/02/22-rdf-syntax-ns#"
   xmlns:svg="http://www.w3.org/2000/svg"
   xmlns="http://www.w3.org/2000/svg"
   xmlns:sodipodi="http://sodipodi.sourceforge.net/DTD/sodipodi-0.dtd"
   xmlns:inkscape="http://www.inkscape.org/namespaces/inkscape"
   width="100%"
   height="100%"
   viewBox="0 0 29.0 36.0"
   id="svg2"
   version="1.1"
   inkscape:version="0.91 r13725"
   sodipodi:docname="autobahn_3x3_z16.svg">
  <metadata
     id="metadata9">
    <rdf:RDF>
      <cc:Work
         rdf:about="">
        <dc:format>image/svg+xml</dc:format>
        <dc:type
           rdf:resource="http://purl.org/dc/dcmitype/StillImage" />
        <dc:title></dc:title>
      </cc:Work>
    </rdf:RDF>
  </metadata>
  <defs
     id="defs7" />
  <sodipodi:namedview
     pagecolor="#ffffff"
     bordercolor="#666666"
     borderopacity="1"
     objecttolerance="10"
     gridtolerance="10"
     guidetolerance="10"
     inkscape:pageopacity="0"
     inkscape:pageshadow="2"
     inkscape:window-width="980"
     inkscape:window-height="717"
     id="namedview5"
     showgrid="false"
     inkscape:zoom="6.5555556"
     inkscape:cx="14.5"
     inkscape:cy="18"
     inkscape:window-x="205"
     inkscape:window-y="274"
     inkscape:window-maximized="0"
     inkscape:current-layer="svg2" />
  <path
     style="fill:#365eaf;fill-opacity:1;stroke:#0528a2;stroke-width:1;stroke-miterlimit:4;stroke-dasharray:none;stroke-opacity:1"
     d="m 14.5,0.49999915 c -0.200716,0 -0.300781,0.003609 -0.300781,0.0128187 L 0.952223,2.4482422 C 0.651148,2.5410472 0.5,2.6813345 0.5,2.8669438 l 0,30.2661112 c 0,0.185609 0.151148,0.325896 0.452223,0.4187 l 13.246996,1.935425 c 0,0.0093 0.100067,0.01282 0.300781,0.01282 0.200717,0 0.300781,-0.0035 0.300781,-0.01282 l 13.246995,-1.935425 c 0.301077,-0.0928 0.386219,-0.24562 0.452224,-0.4187 0,-16.253566 0,-15.906182 0,-30.2661111 0,-0.1856093 -0.151147,-0.3259003 -0.452224,-0.4187016 L 14.800781,0.5128168 c 0,-0.009297 -0.100067,-0.0128187 -0.300781,-0.0128187 z"
     id="path6"
     inkscape:connector-curvature="0"
     sodipodi:nodetypes="sccccccsccccccs" />
</svg>

<?xml version="1.0" encoding="UTF-8"?>
<svg xmlns="http://www.w3.org/2000/svg" xmlns:xlink="http://www.w3.org/1999/xlink" width="28pt" height="48pt" viewBox="0 0 28 48" version="1.1">
<g id="surface1">
<path style="fill-rule:nonzero;fill:rgb(21.176471%,36.862745%,68.627451%);fill-opacity:1;stroke-width:1;stroke-linecap:butt;stroke-linejoin:miter;stroke:rgb(1.960784%,15.686275%,63.529412%);stroke-opacity:1;stroke-miterlimit:4;" d="M 14.5 0.500977 C 14.297712 0.500977 14.200614 0.503906 14.200614 0.512695 L 0.950753 2.449219 C 0.651367 2.540039 0.501674 2.680664 0.501674 2.868164 L 0.501674 33.131836 C 0.501674 33.319336 0.651367 33.459961 0.950753 33.550781 L 14.200614 35.487305 C 14.200614 35.496094 14.297712 35.499023 14.5 35.499023 C 14.702288 35.499023 14.799386 35.496094 14.799386 35.487305 L 28.049247 33.550781 C 28.348633 33.459961 28.433594 33.304688 28.498326 33.131836 C 28.498326 16.880859 28.498326 17.226562 28.498326 2.868164 C 28.498326 2.680664 28.348633 2.540039 28.049247 2.449219 L 14.799386 0.512695 C 14.799386 0.503906 14.702288 0.500977 14.5 0.500977 Z M 14.5 0.500977 " transform="matrix(0.965517,0,0,1.333333,0,0)"/>
</g>
</svg>
